img/logo-twitter.svg

<svg fill="none" height="24" viewBox="0 0 25 24" width="25" xmlns="http://www.w3.org/2000/svg" xmlns:xlink="http://www.w3.org/1999/xlink"><clipPath id="a"><path d="m.756348 0h24v24h-24z"/></clipPath><g clip-path="url(#a)"><path d="m22.3427 7.09306c.0145.21.0145.41999.0145.63193 0 6.45771-4.9161 13.90551-13.90546 13.90551v-.0039c-2.65548.0039-5.25581-.7568-7.491291-2.191.386131.0465.774191.0697 1.163221.0707 2.20065.0019 4.33839-.7365 6.06968-2.0961-2.09129-.0397-3.92516-1.4033-4.5658-3.3939.73258.1413 1.48742.1122 2.20645-.0842-2.28-.4607-3.92032-2.4639-3.92032-4.79034v-.06193c.67935.37839 1.43999.58839 2.21806.61161-2.14742-1.43516-2.80936-4.29193-1.51258-6.52548 2.48129 3.05322 6.14226 4.90935 10.07224 5.1058-.3939-1.69741.1442-3.47612 1.4139-4.66935 1.9684-1.85032 5.0642-1.75548 6.9145.21194 1.0945-.21581 2.1436-.61742 3.1036-1.18646-.3649 1.13129-1.1284 2.09226-2.1484 2.70291.9687-.1142 1.9151-.37355 2.8064-.76936-.6561.98323-1.4826 1.83968-2.4387 2.53162z" fill="#000"/></g></svg>

<svg width="25" height="24" viewBox="0 0 25 24" fill="none" xmlns="http://www.w3.org/2000/svg">
<g clip-path="url(#clip0_3399_6115)">
<path d="M22.3427 7.09306C22.3572 7.30306 22.3572 7.51305 22.3572 7.72499C22.3572 14.1827 17.4411 21.6305 8.45174 21.6305V21.6266C5.79626 21.6305 3.19593 20.8698 0.960449 19.4356C1.34658 19.4821 1.73464 19.5053 2.12367 19.5063C4.32432 19.5082 6.46206 18.7698 8.19335 17.4102C6.10206 17.3705 4.26819 16.0069 3.62755 14.0163C4.36013 14.1576 5.11497 14.1285 5.834 13.9321C3.554 13.4714 1.91368 11.4682 1.91368 9.14176V9.07983C2.59303 9.45822 3.35367 9.66822 4.13174 9.69144C1.98432 8.25628 1.32238 5.39951 2.61916 3.16596C5.10045 6.21918 8.76142 8.07531 12.6914 8.27176C12.2975 6.57435 12.8356 4.79564 14.1053 3.60241C16.0737 1.75209 19.1695 1.84693 21.0198 3.81435C22.1143 3.59854 23.1634 3.19693 24.1234 2.62789C23.7585 3.75918 22.995 4.72015 21.975 5.3308C22.9437 5.2166 23.8901 4.95725 24.7814 4.56144C24.1253 5.54467 23.2988 6.40112 22.3427 7.09306Z" fill="black"/>
</g>
<defs>
<clipPath id="clip0_3399_6115">
<rect width="24" height="24" fill="white" transform="translate(0.756348)"/>
</clipPath>
</defs>
</svg>
